X:12
T:Brest Nots. GS.012
T:Breast Knots?. GS.012
M:2/4
L:1/8
Q:1/2=80
S:George Spencer m/s, Leeds,1831
R:.Country-dance
O:England
A:Leeds
N:This is not the tune known as Bonny Breast Knot or Ladies Breast
N:Knot./cont
N:The title is written twice in different handwritings, possibly because
N:the first attempt looks like Brest Wots
H:1831
Z:vmp.Cherri Graebe
K:G major
G>A (B<d) | (c>d) (e>g) | d>BG>B | A2d2 |\
G>A B>d | c>d e>g | d>BA>d | B2 G2:|!
|:G>FG>E | (DB) G2 | G>FG>E | (DB) G2 |\
B>BB>B | d>ge>d | ^c>AB>^c | d2" D.C"D2 |]

